X: 18499
T: I Buried My Wife And Danced On Her Grave
R: jig
M: 6/8
K: Dmixolydian
|:DAD F2G|AdB cAF|~G3 cAG|FAF GEA|
DED F2G|AdB cAF|G2B cAG|AFD D3:|
|:d2e fed|faf gfe|d2e fed|d^cA d^cA|
d2e fed|faf gfe|d^cA BAG|AFD D3:|

